X: 17
T: Song of Preparing the Sacred Place
C: Teton Sioux band 1911-1914
N: Derived from sioux017.krn
O: South Dakota, U.S.A.
N: Teton Sioux Music by Frances Densmore, 1918
Z: transcribed to **kern format by Craig Sapp
L: 1/16
M: 2/4
Q: 1/4=58
K: C clef=bass
%%linebreak <none>
E E [I:setbarnb 1]| 
E4E2 C A, | 
E2> E2 E3 C | 
B,4B,4 | 
B,8- | 
B,6C C | 
B,4B,2 A, G, | 
B,2> B,2 B,3 A, | 
A,4A,4 | 
A,8- | 
A,6A, A, | 
A,4C3 C | 
(C2<< A,2) A,2 A, A, | 
A,2> F,2 E,3 F, | 
E,4E,4 | 
E,8- | 
E,6F, F, | 
E,4E,2 C, A,, | 
E,2> E,2 E,3 C, | 
A,,4A,,4 | 
A,,8- | 
A,,8 |]  



